X:1
T:Title
%%score { 1 | 2 }
L:1/8
Q:1/4=81
M:6/8
K:Ab
V:1 treble nm="Grand Piano"
V:2 bass 
V:1
 [Ec]>[DB][CA] [FA]>[EG][DF] | [CE][A,C][DF] [CE]3 | d>cB BA[EG] | [EA][EB]>[EB] [Ec]3 | %4
w: Frank~E.~Robinson * * * * *||||
 e>fe e[Ec][EA] |[M:7/8] [FB][FB][Fc] [Fd]3 [Fd] |[M:3/4] c>B AG AB |[M:5/8] [CA]-[CA]- [CA]3 | %8
w: ||||
[M:1/8] [CE] |[M:3/4] [DF][Fd]- [Fd]/[Fd]/ [Fd]2 F | [CE][Ec]- [Ec]/[Ec]/ c2 B | %11
w: |||
 AA A[=Dc] [Dc][DB] | [EB]3 [Ge]2 [Ge] | fe c A2 c |[M:13/16] [Fd][Fc][FB][DF]-<[DF][Fd]3/2 | %15
w: ||||
[M:3/4] c>B AG AB |[M:5/8] [CA]-[CA]- [CA]3 |] %17
w: ||
V:2
 [A,,A,]>[A,,A,][A,,A,] [A,,A,]>[A,,A,][A,,A,] | [A,,A,][A,,E,][A,,A,] [A,,A,]3 | %2
 [E,B,E]>[E,A,E][E,G,D] [E,G,D][E,A,C][D,B,] | [C,A,][E,G,]>[E,G,] [A,,A,]3 | %4
 [A,CA]>[A,DA][A,CA] [A,CA][K:bass][A,,A,][C,A,] |[M:7/8] [D,A,][D,A,][C,=A,] [B,,B,]3 [B,,B,] | %6
[M:3/4] [E,A,E]>[E,G,D] [E,A,C][E,B,E] [E,CE][G,D] |[M:5/8] [A,,A,]-[A,,A,]- [A,,A,]3 | %8
[M:1/8] [A,,A,] |[M:3/4] [D,A,][D,A,]- [D,A,]/[D,A,]/ [D,A,]2 [D,A,] | %10
 [A,,A,][A,,A,]- [A,,A,]/[A,,A,]/ [A,E]2 [G,C=E] | [F,CF][F,CF] [F,CF][B,,A,] [B,,A,][B,,A,] | %12
 [E,G,]3 [E,B,]2 [E,D] | [A,CA][A,CA] [A,EA] [A,CE]2 [A,E] | %14
[M:13/16][K:bass] [D,A,][D,A,][D,D][D,B,]-<[D,B,][B,,B,]3/2 | %15
[M:3/4] [E,A,E]>[E,DE] [E,CE][E,B,E] [E,CE][E,G,D] |[M:5/8] [A,,A,]-[A,,A,]- [A,,A,]3 |] %17

